X: 21706
T: Kilty Town
R: reel
M: 4/4
K: Gmajor
|:BG~G2 d2 cA|BdcA BGGB|AD~D2 cD~D2|~B3 d cAdc|
BG~G2 d2 cA|BdcA BGGA|DFAd ~f2 eg|1 fdcA G3A:|2 fdcA G4||
|:~g3 a gB~B2|eBgB eB ~B2|dega bgag|eaag agef|
g2bg ~f2 af|egfd edBd|cdec BcdB|1 AGAB cded:|2 AGAB cdef||
~g3 d BG ~G2|FGAB cBcA|GB ~B2 GABc|d2 AG FD D/E/F|
G2 BG ~F2 AF|EGFD EDB,D|C2 EC B,CDE|FGAd BG G2|
~g3 d BG ~G2|FGAB cBcA|GB ~B2 GABc|d2 AG FD D/E/F|
G2 BG ~F2 AF|EGFD EDB,D|C2 EC ~B,2 DB,|A,B,CD EFGA||

